X: 4
T: The Mouth Of The Tobique
R: reel
M: 4/4
L: 1/8
K: Gmaj
|:(3DEF|G2GG Bded|BdBG DGBG|ABAG FDEF|GABc d2(3DEF|
G2GG Bded|BdBG DGBG|ABAG FDEF|GBAFG2:|
|:ef|g2g2<g2ag|fdAdf2gf|ecAG FDEF|GABc d2ef|
g2g2<g2ag|fdAdf2gf|ecAG FDEF|GBAFG2:|
|:(3DEF|GGBG GcGG|BGGc GGBG|FGAB cDEF|GABc d2(3DEF|
GGBG GcGG|BGGc GGBG|FGAB cDEF|GBAFG2:|


Tune 423	Setting 423

